X:1
T:Christ Child Lullaby
M:6/4
L:1/4
K:D
 z4 z D| D2 E F2 G| A2 G D2 G| F2 D E2 A| G2E/2-D/2 =C2 D| D2 E F2 G|\
 A2(3G3.99999962500005/11.9999985000002G3.99999962500005/11.9999985000002A3.99999962500005/11.9999985000002G3.99999962500005/11.9999985000002A3.99999962500005/11.9999985000002G3.99999962500005/11.9999985000002 D3|\
 D2 A, =C2 D| E2 D D2 z|
